X:1
T:Lovely Stornaway
T:Lovely Stornaway
T:Scottish Waltz
C:Scottish Waltz
L:1/8
M:3/4
K:A
V:1 treble 
V:1
"A" A4 f2 | e4 A2 |"D" a4 g2 | f6 |"A" a4 f2 | e4 A2 |"E7""B7" c4 B2 |"E7" B6 |"A" A4 f2 | e4 A2 | %10
"D" a4 g2 | f4 e2 |"A" e2 a4 |"E7" c4 B2 |"A" A6 | A6 ||"A" e4 e2 | f4 e2 |"D" a4 g2 | f6 | %20
"A" a4 f2 | e4 A2 |"E7""B7" c4 B2 |"E7" B6 |"A" e4 e2 | f4 e2 |"D" a4 g2 | f4 e2 |"A" e2 a4 | %29
"E7" c4 B2 |"A" A6 | A6 || %32

